X: 79
T:The Leeds Polka
M:2/4
L:1/16
Q:150
S:Ashton and Dyson,
B:A First Collection of Yorkshire Dance Music
N:INWAC, Jenny Coxo
Z:TonyDoyl
K:D
d2g2 gefe|d2g2 B4|A2f2 f4|B2g2 g4|d2g2 gefe|d2g2 B4|A2f2a2f2|g4 g4 g4|!
Adf2 f2a2|a2g2 gfe2|Ace2 e2g2|g2f2 fed2|Adf2 f2a2|a2g2 gfe2|Ace2 Ace2|d4 d4 
d4|!
DGB2 B2B2|DGB2 B2B2|=cBA2 =cBA2|G2B2e2d2|DGB2 B2B2|DGB2 B2B2|=cBA2 =cBA2|G4 
g4|!

